X:1
T:Bring Peace to My Soul
T:Bring Peace to My Soul
T:James Milton Dungan
T:Helen Louisa Silcott Dungan, 1905
T:Public Domain Courtesy of the Cyber Hymnal™
T:Public Domain Courtesy of the Cyber Hymnal™
C:James Milton Dungan
Z:Public Domain
Z:Courtesy of the Cyber Hymnal™
%%score ( 1 2 ) ( 3 4 )
L:1/8
Q:1/4=87
M:3/4
K:F
V:1 treble 
V:2 treble 
V:3 bass 
V:4 bass 
V:1
 [CA]2 | C3 [CD] [CF][FA] | [Ec]>[CE] !fermata![CE]2 C2 | [CB]3 [CB] [CA][CE] | %4
w: 1.~When|earth- ly cares and|sor- rows roll Like|o- cean’s bil- lows|
w: 2.~I|need Thee, oh I|need Thee so, To|help me as I|
w: 3.~No|cloud can hide from|me Thy face, No|storm de- prive me|
w: 4.~In|joy or sor- row|still be near, To|drive a- way my|
 [CG]>[CF] !fermata![CF]2 [CA]2 | C3 [DF] [DA][Dc] | [Dc]>[DB] D[DE] [DF][DG] | %7
w: o’er my soul, No|tem- pest can my|bark con- trol, If Thou wilt|
w: on- ward go; Sin’s|ar- rows can- not|lay me low, If Thou wilt|
w: of Thy grace, No|sin with- in my|heart have place, If Thou wilt|
w: ev- ery fear; Earth’s|chang- es can- not|harm me here, If Thou wilt|
[M:6/8] [CA]>C[CB] [CA]>[CA][CG] | [CF]3- [CF]2 ||"^Refrain" [Fc] | [CE]>[CE][CE] ([CE][EA])[CG] | %11
w: on- ly bring peace to my|soul. *|||
w: on- ly bring peace to my|soul. *|Bring|peace to my soul * to-|
w: on- ly bring peace to my|soul. *|||
w: on- ly bring peace to my|soul. *|||
 F3- [CF]2 C | c3- [Gc]2 [Ed] | c3- !fermata![Ac]2 [Fc] | [CE]>[CE][CE] ([CE][EA])[EG] | %15
w: ||||
w: day, Bring peace|to- day; Bring|* peace to|* my soul to- * day,|
w: ||||
w: ||||
 [DF]2 [FG] !fermata![EA]2 (G/d/) | [Fc][CF][CB] [CA]2 [CG] | [CF]3- [CF]2 |] %18
w: |||
w: to- day, Bring peace *|to my soul to- day.||
w: |||
w: |||
V:2
 x2 | C3 x3 | x4 C2 | x6 | x6 | C3 x3 | x2 D x3 |[M:6/8] x3/2 C/ x4 | x5 || x | x6 | (C2 D C) x2 | %12
 E2 F x3 | F2 B x3 | x6 | x5 G | x6 | x5 |] %18
V:3
 [F,,F,]2 | [F,A,]3 [F,A,] [F,A,][F,C] | [C,G,B,]>[C,B,] !fermata![C,B,]2 [C,B,]2 | %3
w: |||
 [C,G,]3 [C,G,] [C,F,][C,B,] | [F,B,]>[F,A,] !fermata![F,A,]2 [F,,F,]2 | %5
w: ||
 [F,A,]3 [D,A,] [D,^F,][D,F,] | [G,,G,]>[G,,G,] [B,,G,][B,,G,] [=B,,G,][B,,F,] | %7
w: ||
[M:6/8] [C,F,]>[C,A,][C,G,] [C,F,]>[C,F,][C,B,] | [F,A,]3- [F,A,]2 || [F,A,] | %10
w: |||
 [G,B,]>[C,G,B,][C,G,B,] (G,C)[C,B,] | [F,A,]2 [F,B,] [F,A,]2 [F,A,] | %12
w: |* to- day, *|
 [C,G,]2 [C,A,] [C,B,]2 [C,B,] | [F,A,]2 [F,D] !fermata![F,C]2 [F,A,] | %14
w: * sweet peace *|* to- day, *|
 [G,B,]>[C,G,B,][C,G,B,] (G,C)[C,B,] | [D,A,]2 [B,,D] !fermata![A,,^C]2 (D/B,/) | %16
w: ||
 [C,A,][C,A,][C,G,] [C,F,]2 [C,B,] | [F,A,]3- [F,A,]2 |] %18
w: ||
V:4
 x2 | x6 | x6 | x6 | x6 | x6 | x6 |[M:6/8] x6 | x5 || x | x3 C,2 x | x6 | x6 | x6 | x3 C,2 x | %15
 x5 B,, | x6 | x5 |] %18

